X: 38800
T: Such A Wife As Willie Had
R: reel
M: 4/4
K: Dmajor
|:Adde f2ed|f2ed gee2|Adde f2eg|afge d2d2:|
|:a2af g2ge|f2ed gee2|a2af g2fe|faef d2d2:|

